assets/backup_wallet.svg

<svg fill="none" height="61" viewBox="0 0 55 61" width="55" xmlns="http://www.w3.org/2000/svg"><path d="m55 49c0 6.617-5.383 12-12 12s-12-5.383-12-12c0-2.13.565-4.223 1.636-6.052.558-.953 1.781-1.276 2.736-.716.953.558 1.274 1.783.717 2.736-.713 1.217-1.089 2.612-1.089 4.032 0 4.411 3.589 8 8 8s8-3.589 8-8c0-4.014-2.974-7.337-6.833-7.905v1.894l-6.908-3.989 6.908-3.989v2.048c6.071.589 10.833 5.718 10.833 11.941zm-32-39c14.04 0 23-2.961 23-5s-8.96-5-23-5-23 2.961-23 5 8.96 5 23 5zm0 14c14.04 0 23-2.961 23-5v-11.076c-4.029 2.685-13.555 4.076-23 4.076s-18.971-1.391-23-4.076v11.076c0 2.039 8.96 5 23 5zm20 8c1.025 0 2.025.106 3 .28v-10.356c-4.029 2.685-13.555 4.076-23 4.076s-18.971-1.391-23-4.076v11.076c0 2.039 8.96 5 23 5 2.636 0 5.072-.112 7.321-.296 3.113-3.492 7.632-5.704 12.679-5.704zm-20 8c-9.445 0-18.971-1.391-23-4.076v11.076c0 2.039 8.96 5 23 5 1.131 0 2.211-.028 3.27-.066-.166-.955-.27-1.932-.27-2.934 0-3.387 1.002-6.536 2.71-9.187-1.879.115-3.791.187-5.71.187z" fill="#00a1cc"/></svg>

<svg width="55" height="61" viewBox="0 0 55 61" fill="none" xmlns="http://www.w3.org/2000/svg">
<path d="M55 49C55 55.617 49.617 61 43 61C36.383 61 31 55.617 31 49C31 46.87 31.565 44.777 32.636 42.948C33.194 41.995 34.417 41.672 35.372 42.232C36.325 42.79 36.646 44.015 36.089 44.968C35.376 46.185 35 47.58 35 49C35 53.411 38.589 57 43 57C47.411 57 51 53.411 51 49C51 44.986 48.026 41.663 44.167 41.095V42.989L37.259 39L44.167 35.011V37.059C50.238 37.648 55 42.777 55 49ZM23 10C37.04 10 46 7.039 46 5C46 2.961 37.04 0 23 0C8.96 0 0 2.961 0 5C0 7.039 8.96 10 23 10ZM23 24C37.04 24 46 21.039 46 19V7.924C41.971 10.609 32.445 12 23 12C13.555 12 4.029 10.609 0 7.924V19C0 21.039 8.96 24 23 24ZM43 32C44.025 32 45.025 32.106 46 32.28V21.924C41.971 24.609 32.445 26 23 26C13.555 26 4.029 24.609 0 21.924V33C0 35.039 8.96 38 23 38C25.636 38 28.072 37.888 30.321 37.704C33.434 34.212 37.953 32 43 32ZM23 40C13.555 40 4.029 38.609 0 35.924V47C0 49.039 8.96 52 23 52C24.131 52 25.211 51.972 26.27 51.934C26.104 50.979 26 50.002 26 49C26 45.613 27.002 42.464 28.71 39.813C26.831 39.928 24.919 40 23 40Z" fill="#00A1CC"/>
<defs>
<linearGradient id="paint0_linear_4892_82451" x1="27.5" y1="0" x2="27.5" y2="61" gradientUnits="userSpaceOnUse">
<stop stop-color="#00A1CC"/>
<stop offset="1" stop-color="#0E83A3"/>
</linearGradient>
</defs>
</svg>
